X: 36229
T: Scully Casey's
R: jig
M: 6/8
K: Edorian
G2E FED|B,EE B,EE|GFG AGA|Bde dBA|
G2E FED|B,EE B,EE|GBG AFD|FEE E2F:|
GFG AGA|B2e edB|Bcd e2e|efe dBA|
GFG AGA|B2e edB|GBG AFD|FED E2F|
GFG AGA|B2e edB|Bcd e2e|efe dBA|
Bef gfe|dBe dBA|GBG AFD|FED E2F|

